X: 76
T: Pana ja wzywać będę, dokądem żywy,
C: Mikołaj Gomółka
%%abc-version 2.0
%%abcx-abcm2ps-target-version 5.9.1 (29 Sep 2008)
%%abc-creator hum2abc beta
%%abcx-conversion-date 2021/10/04 07:59:09
%%abc-edited-by Leszek Kubiak
%%abcx-initial-encoding-date data 2020-02-20
%%humdrum-veritas 1287367869
%%humdrum-veritas-data 1930653636
%%linebreak <none>
%%barnumbers 0
L: 1/4
M: C|
N: Derived from pl-wn--sd-xvi-qu-273--077_gomolka-mikolaj--pana-ja-wzywac-bede-dokadem-zywy.krn
%%staves [1 2 3 4]
V: 1 clef=treble
V: 2
V: 3 clef=alto
V: 4
K: Bb
[V:1] G4B2c2 [|] 
[V:2] D4D3C [|] 
[V:3] G,4G,3A, [|] 
[V:4] G,4DCB,A, [|] 
[V:1] d2=e2f2e2 [|] 
[V:2] B,A,G,2A,2A2 [|] 
[V:3] B,2C2D2=E2 [|] 
[V:4] G,F,=E,2D,2^C,2 [|] 
[V:1] d2f2=e2d4 [|] 
[V:2] A2>B2c2A2 [|] 
[V:3] F2D2G2F2 [|] 
[V:4] D,2D,2=E,2F,2 [|] 
[V:1] ^c2d4 :|]  
[V:2] B2AG^F4 :|]  
[V:3] =E4D4 :|]  
[V:4] G,2A,2D,4 :|]  
[V:1] d4d3d [|] 
[V:2] B4B3G [|] 
[V:3] G4F3D [|] 
[V:4] G,4B,3B, [|] 
[V:1] ^c2d2B2=c2 [|] 
[V:2] A2A2G2=E2 [|] 
[V:3] =E2D2D2C2 [|] 
[V:4] A,2^F,2G,2A,2 [|] 
[V:1] d2>d2c2B4 [|] 
[V:2] D2BAGFG2 [|] 
[V:3] F2>F2_E4 [|] 
[V:4] D,2>D,2_E,2E,2 [|] 
[V:1] A2B4 [|] 
[V:2] F2>=E2D4 [|] 
[V:3] D2C2B,4 [|] 
[V:4] F,4B,,4 [|] 
[V:1] A4A3A [|] 
[V:2] F4F3F [|] 
[V:3] z2D2C3C [|] 
[V:4] D,4F,3F, [|] 
[V:1] B2G2=e4 [|] 
[V:2] D4G2=E2 [|] 
[V:3] B,4B,2C2 [|] 
[V:4] G,2>F,2_E,D,C,2 [|] 
[V:1] d2>c2B2A4 [|] 
[V:2] F6F2 [|] 
[V:3] D6C4 [|] 
[V:4] B,,2>C,2D,=E,F,2 [|] 
[V:1] G4F2 [|] 
[V:2] _E2C2D4 [|] 
[V:3] G,2B,2A,2 [|] 
[V:4] C,2_E,2D,4 [|] 
[V:1] G32 [|] 
[V:2] D32 [|] 
[V:3] G,32 [|] 
[V:4] G,32 [|] 


